X:1
T:An Paistin Fionn
M:4/4
L:1/8
S:Celtic Tradition
R:air, hornpipe
D:Celtic Tradition LP" I have waited for many a Night and Day"
Z:Barney <G.Bahn-Koepke@t-online.de> irtrad-l 2000-10-26
K:D
(3Bcd|:eg fe de(3fed|gb ag f2 gf|e2 ed BA GA|Bd (3cBA B2 (3Bcd|
eg fe de (3fed|gb ag f2 gf|e2 ed BA FG|1 E2 ED E2 (3Bcd :|2 E2 ED E4||
GA Be dB (3BBB|cA (3AAA dB BA|GA Be dB ~B A|Be e^d e3z|
GA Be dB BA|Be ef ~g3 f|e2 ed BA FG|1 E2 ED E4:|2 E2 ED E2 (3Bcd||
